X:1
T:Look for the Beautiful
T:Look for the Beautiful
T:Thoro Harris
T:Thoro Harris, 1911
T:Public Domain Courtesy of the Cyber Hymnal™
T:Public Domain Courtesy of the Cyber Hymnal™
C:Thoro Harris
Z:Public Domain
Z:Courtesy of the Cyber Hymnal™
%%score 1 ( 2 3 )
L:1/8
Q:1/4=115
M:3/4
K:Bb
V:1 treble 
V:2 bass 
V:3 bass 
V:1
 [DB]2 [DB]2 [DB]2 | [EA]>[EG] [EF]4 | [EG]2 [GB]2 [EG]2 | [DF]6 | [EF]2 [A,C]2 [CE]2 | %5
w: 1.~Look for the|beau- ti- ful,|look for the|true;|Look for the|
w: 2.~Think of the|beau- ti- ful,|think of the|pure;|On- ly the|
w: 3.~Speak of the|beau- ti- ful,|speak of the|pure;|These to e-|
w: 4.~Look to the|stars of light|(not down to|earth);|All that is|
 [B,D]>[CF] [DB]4 | [=EB]2 [EG]2 [Ed]2 | [Ec]6 | [Fd]2 [Fd]2 [Ec]2 | [Ec]>[DB] [DB]4 | %10
w: beau- ti- ful,|life’s jour- ney|thro’.|Seek- ing true|love- li- ness,|
w: beau- ti- ful|long can en-|dure.|God to His|low- ly ones|
w: ter- ni- ty|fade- less en-|dure.|Er- ror shall|van- ish soon,|
w: beau- ti- ful|there had its|birth.|Up- ward and|for- ward go,|
 [B,D]2 [CE]2 [DF]2 | [EG]6 | [GB]2 [FA]2 [EG]2 | [DF]>[DB] [Fd]4 | [=Ec]2 [EG]2 [_EA]2 | [DB]6 || %16
w: joy you will|know,|As to the|home a- bove|on- ward you|go.|
w: “giv- eth more|grace”;|None but the|pure in heart|look on His|face.|
w: e- vil de-|cay;|God and the|beau- ti- ful|pass not a-|way.|
w: look- ing a-|bove;|There is the|dwell- ing- place|of per- fect|love.|
"^Refrain" [DF]4 [B,D]>[CE] | [DF]>[^C=E] [DF]4 | [EG]3 [FA] [GB][EG] | [DF]6 | [CE]4 [A,C]>[B,D] | %21
w: |||||
w: Look for the|beau- ti- ful,|seek to find the|true,|God and the|
w: |||||
w: |||||
 [CE]>[DF] [EG]2 [EA]2 | [DB]4 [B,D]2 | [DF]6 | [DF]4 [B,D]>[CE] | [DF]>[^C=E] [DF]4 | %26
w: |||||
w: beau- ti- ful will|dwell with|you;|Look for the|beau- ti- ful,|
w: |||||
w: |||||
 [EG]3 [FA] [GB][Gc] | !fermata![^Fd]6 |"^Harmony" [EG]2 [=Ec]2 [EB]2 | [EA]>[EG] !fermata![EF]4 | %30
w: ||||
w: seek to find the|true,|You shall be|beau- ti- ful,|
w: ||||
w: ||||
 [Ec]>[EB] [EA]2 [Ec]2 | [DB]6 |] %32
w: ||
w: beau- ti- ful with-|in.|
w: ||
w: ||
V:2
 B,,2 [F,B,]2 [F,B,]2 | C,2 ([F,A,]2 [F,A,]2) | E,2 [G,B,]2 [G,B,]2 | (B,,2 [F,B,]2 [F,B,]2) | %4
 C,2 F,2 F,2 | B,,2 ([F,B,]2 [F,B,]2) | C,2 [G,B,C]2 [G,B,]2 | (F,,2 [F,A,]2 [F,A,]2) | %8
 B,,2 [F,B,]2 [F,B,]2 | B,,2 ([F,B,]2 [F,B,]2) | B,,2 [F,B,]2 [F,B,]2 | (E,2 [G,B,]2 [G,B,]2) | %12
 E,2 [G,B,]2 [G,B,]2 | B,,2 ([F,B,]2 [F,B,]2) | z2 B,2 F,2 | [B,,F,]6 || (B,,2 [F,B,]2) F,2 | %17
 B,,2 ([F,B,]2 [F,B,]2) | E,2 [G,B,]2 [G,B,]2 | (B,,2 [F,B,]2 [F,B,]2) | (F,,2 [F,A,]2) F,2 | %21
 F,,2 [F,A,]2 F,2 | (B,,2 [F,B,]2) F,2 | (B,,2 [F,B,]2 [F,B,]2) | (B,,2 [F,B,]2) F,2 | %25
 B,,2 ([F,B,]2 [F,B,]2) | (E,2 [G,B,]2) [G,B,]2 | (!fermata!A,2 D2 !fermata!C2) | %28
 [E,B,]2 [C,B,]2 [C,C]2 | [F,C]>[F,B,] !fermata![F,A,]4 | [F,A,]>[F,B,] [F,C]2 [F,A,]2 | %31
 [B,,F,B,]6 |] %32
V:3
 x6 | x6 | x6 | x6 | x6 | x6 | x6 | x6 | x6 | x6 | x6 | x6 | x6 | x6 | (C,4 F,2) | x6 || x6 | x6 | %18
 x6 | x6 | x6 | x6 | x6 | x6 | x6 | x6 | x6 | D,6 | x6 | x6 | x6 | x6 |] %32

